img/ui/icons/Balans.svg

<svg width="24" height="24" viewBox="0 0 24 24" fill="none" xmlns="http://www.w3.org/2000/svg">
<path d="M2.76813 4.93122C2.13624 5.5631 1.78125 6.42013 1.78125 7.31376V16.6865C1.78125 17.5801 2.13624 18.4372 2.76813 19.0691C3.40002 19.701 4.25704 20.0559 5.15067 20.0559H18.8493C19.743 20.0559 20.6 19.701 21.2319 19.0691C21.8638 18.4372 22.2188 17.5801 22.2188 16.6865V7.31376C22.2188 6.42013 21.8638 5.5631 21.2319 4.93122C20.6 4.29933 19.743 3.94434 18.8493 3.94434H5.15067C4.25704 3.94434 3.40002 4.29933 2.76813 4.93122ZM3.96453 6.12762C4.27911 5.81303 4.70578 5.6363 5.15067 5.6363H18.8493C19.2942 5.6363 19.7209 5.81303 20.0355 6.12762C20.3501 6.4422 20.5268 6.86887 20.5268 7.31376V8.27023H3.47321V7.31376C3.47321 6.86887 3.64995 6.4422 3.96453 6.12762ZM3.96453 17.8727C3.64995 17.5581 3.47321 17.1314 3.47321 16.6865V9.96219H20.5268V16.6865C20.5268 17.1314 20.3501 17.5581 20.0355 17.8727C19.7209 18.1872 19.2942 18.364 18.8493 18.364H5.15067C4.70578 18.364 4.27911 18.1872 3.96453 17.8727ZM17.7679 14.0381H15.6049C15.3805 14.0381 15.1654 14.1272 15.0067 14.2859C14.8481 14.4445 14.7589 14.6597 14.7589 14.8841C14.7589 15.1084 14.8481 15.3236 15.0067 15.4823C15.1654 15.6409 15.3805 15.7301 15.6049 15.7301H17.7679C17.9922 15.7301 18.2074 15.6409 18.3661 15.4823C18.5247 15.3236 18.6138 15.1084 18.6138 14.8841C18.6138 14.6597 18.5247 14.4445 18.3661 14.2859C18.2074 14.1272 17.9922 14.0381 17.7679 14.0381Z" fill="currentColor" stroke="currentColor" stroke-width="0.25"/>
</svg>

<svg width="24" height="24" fill="none" xmlns="http://www.w3.org/2000/svg"><path d="M2.768 4.931a3.37 3.37 0 0 0-.987 2.383v9.372a3.37 3.37 0 0 0 3.37 3.37h13.698a3.37 3.37 0 0 0 3.37-3.37V7.314a3.37 3.37 0 0 0-3.37-3.37H5.151a3.37 3.37 0 0 0-2.383.987Zm1.197 1.197a1.677 1.677 0 0 1 1.186-.492h13.698a1.678 1.678 0 0 1 1.678 1.678v.956H3.473v-.956c0-.445.177-.872.492-1.186Zm0 11.745a1.678 1.678 0 0 1-.492-1.187V9.962h17.054v6.724a1.678 1.678 0 0 1-1.678 1.678H5.151c-.445 0-.872-.177-1.186-.491Zm13.803-3.835h-2.163a.846.846 0 1 0 0 1.692h2.163a.846.846 0 0 0 0-1.692Z" fill="currentColor" stroke="currentColor" stroke-width=".25"/></svg>
